Papirus/64x64/apps/abiword.svg

<?xml version="1.0" encoding="UTF-8" standalone="no"?>
<svg xmlns="http://www.w3.org/2000/svg" height="64" viewBox="0 0 64 64" width="64" version="1.1">
 <path style="fill:#248afd;" d="M 32,4 A 28,28 0 0 0 4,32 28,28 0 0 0 32,60 28,28 0 0 0 60,32 28,28 0 0 0 32,4 Z"/>
 <path style="opacity:0.2;fill:#ffffff" d="M 32,4 A 28.0005,28.021517 0 0 0 4,32.021986 28.0005,28.021517 0 0 0 4.0214844,32.428158 28.0005,28.021517 0 0 1 32,4.9998088 28.0005,28.021517 0 0 1 59.978516,32.6 28.0005,28.021517 0 0 0 60,32.021986 28.0005,28.021517 0 0 0 32,4 Z"/>
 <path style="opacity:0.2;" d="M 4.0214844,32.5 A 28,27.923455 0 0 0 4,33.076545 28,27.923455 0 0 0 32,61 28,27.923455 0 0 0 60,33.076545 28,27.923455 0 0 0 59.978516,32.671405 28,27.923455 0 0 1 32,60.002734 28,27.923455 0 0 1 4.0214844,32.5 Z"/>
 <path style="opacity:0.2" d="M 32.091797 6.0078125 C 30.345151 6.1163246 28.593425 7.4539818 27.390625 8.6972656 C 21.894253 14.362403 18.546148 21.75635 15.265625 28.894531 C 12.525684 34.944143 10.470281 41.280753 8.8417969 47.730469 A 28 28 0 0 0 13.578125 53.039062 C 13.084951 51.60287 13.929388 49.181206 14.285156 47.845703 C 16.812679 39.453733 20.731934 31.597017 24.458984 23.71875 C 25.934652 21.229611 26.981695 17.799509 29.957031 16.841797 C 32.84703 16.511775 34.745231 19.384951 36.242188 21.480469 C 42.232087 30.908513 47.890017 40.579422 52.880859 50.603516 A 28 28 0 0 0 54.285156 48.912109 C 50.899637 36.96992 46.516972 25.299937 40.287109 14.609375 C 38.486947 11.887942 36.848721 8.9353907 34.419922 6.7460938 C 33.680249 6.1623097 32.885727 5.9584888 32.091797 6.0078125 z M 44.291016 42.736328 C 35.039506 47.436738 25.518647 51.847256 15.410156 54.197266 C 15.222224 54.196325 15.053183 54.176984 14.896484 54.148438 A 28 28 0 0 0 20.255859 57.380859 C 24.860823 55.640547 29.289062 53.374329 33.544922 50.898438 C 37.391466 48.577128 41.090787 45.941378 44.291016 42.736328 z"/>
 <path style="fill:#cccccc;stroke-width:0.21785234px;" d="m 44.291096,41.735941 c -9.25151,4.70041 -18.773356,9.11152 -28.881847,11.46153 -3.258347,-0.0163 -1.650693,-4.3759 -1.124413,-6.35148 2.527523,-8.39197 6.446634,-16.248611 10.173684,-24.126878 1.475668,-2.489139 2.522352,-5.919629 5.497688,-6.877341 2.889999,-0.330022 4.788856,2.542321 6.285812,4.637839 6.121057,9.634484 11.901532,19.52108 16.971378,29.78059 1.284035,2.67406 2.541992,5.36122 3.786602,8.05476 C 53.299117,42.790291 48.317809,27.390454 40.287485,13.610259 38.487323,10.888826 36.847866,7.9357639 34.419067,5.7464669 32.052113,3.8783579 29.140768,5.8896019 27.391241,7.6980149 21.894869,13.363152 18.546949,20.755522 15.266426,27.893703 11.440354,36.341421 8.9299727,45.346031 7.0872173,54.441691 c -0.6460644,3.06327 2.4198389,5.28677 5.1444337,4.33626 7.546698,-1.6131 14.638721,-4.99673 21.313272,-8.87972 3.846544,-2.32131 7.545944,-4.95724 10.746173,-8.16229 z"/>
</svg>

<?xml version="1.0" encoding="UTF-8" standalone="no"?>
<svg width="64" xmlns="http://www.w3.org/2000/svg" viewBox="0 0 64 64" version="1.1" height="64">
 <circle cy="33" cx="32" r="28" style="opacity:.2"/>
 <circle style="fill:#248afd" cx="32" r="28" cy="32"/>
 <path style="opacity:.2" d="m32.092 6.0078c-1.747 0.1085-3.499 1.4462-4.701 2.6895-5.497 5.6647-8.845 13.059-12.125 20.198-2.74 6.049-4.796 12.386-6.4242 18.835a28 28 0 0 0 4.7362 5.309c-0.493-1.436 0.351-3.858 0.707-5.193 2.528-8.392 6.447-16.249 10.174-24.127 1.476-2.489 2.523-5.919 5.498-6.877 2.89-0.33 4.788 2.543 6.285 4.638 5.99 9.429 11.648 19.099 16.639 29.124a28 28 0 0 0 1.404 -1.692c-3.385-11.942-7.768-23.612-13.998-34.303-1.8-2.721-3.438-5.6736-5.867-7.8629-0.74-0.5838-1.534-0.7876-2.328-0.7383zm12.199 36.728c-9.251 4.701-18.772 9.111-28.881 11.461-0.188-0.001-0.357-0.02-0.514-0.049a28 28 0 0 0 5.36 3.233c4.605-1.74 9.033-4.007 13.289-6.483 3.846-2.321 7.546-4.957 10.746-8.162z"/>
 <path style="fill:#cccccc" d="m44.291 41.736c-9.2515 4.7004-18.773 9.1115-28.882 11.462-3.2583-0.0163-1.6507-4.3759-1.1244-6.3515 2.5275-8.392 6.4466-16.249 10.174-24.127 1.4757-2.4891 2.5224-5.9196 5.4977-6.8773 2.89-0.33002 4.7889 2.5423 6.2858 4.6378 6.1211 9.6345 11.902 19.521 16.971 29.781 1.284 2.6741 2.542 5.3612 3.7866 8.0548-3.701-15.527-8.682-30.927-16.713-44.707-1.8-2.721-3.439-5.6742-5.868-7.8635-2.367-1.8681-5.278 0.1431-7.028 1.9515-5.496 5.665-8.844 13.058-12.125 20.196-3.826 8.447-6.336 17.452-8.1788 26.548-0.64606 3.0633 2.4198 5.2868 5.1444 4.3363 7.5467-1.6131 14.639-4.9967 21.313-8.8797 3.8465-2.3213 7.5459-4.9572 10.746-8.1623z"/>
 <path style="opacity:.2;fill:#ffffff" d="m32 4a28 28 0 0 0 -28 28 28 28 0 0 0 0.0215 0.586 28 28 0 0 1 27.978 -27.586 28 28 0 0 1 27.979 27.414 28 28 0 0 0 0.021 -0.414 28 28 0 0 0 -28 -28z"/>
</svg>
